X:152
T:Allemand’s Quick Step. JGi.152
M:2/4
L:1/16
Q:1/4=95
S:Joshua Gibbons MS,1823,Tealby,Lincs.
N:variant of “Davy Davy Knick Knack”
R:quick step
O:Tealby,Lincolnshire
Z:VMP/R.Greig, 2009
K:C
G2|(cd)(cd) .e2.e2|(cd)(cd) .e2.e2|gfef .d2.d2|gfefd4|
(cd)(cd) .e2.e2|(cd)(cd) .e2.e2|(gfef) (gfed)|c4z4:|
|:fgfg e2e2|.c’2.c’2g4|(gfef) .d2.d2|(gf)(ef)d4|
(fg)(fg) .e2.e2|.c’2.c’2 g4|(gfef) (gfed)|c4z4:|
|:”e3f in MS”e6f2|.g2.a2.b2.c’2|a4a2>a2|a4agfe|d6e2|
f2a2g2f2|e4e2>e2|e4z4|e6″f4 inMS”f2|.g2.a2.b2.c’2|
a4a2>a2|a4agfe|d6e2|f2a2g2f2|e4c2>c2|c4″DC”z4:|

